!!!!SEGMENT: pl-kk--kk-i-137--003_anonim--caro-mea-alleluja.krn
!!!cenid: 16xx:753
!!!COM: Anonim
!!!COM-rismid: pe30004985
!!!CDT:
!!!CNT:
!!!OTL: Caro mea
!!!OMV: 003
!!!PDT:
!!!AGN: Sacred
!!!SMS-siglum: PL-Kk
!!!SMS-shelfmark: Kk.I.137
!!!SMS-shelfwork: 001-003 W
!!!SMS-variant:
!!!SMS-altvar:
!!!NIFC-rismid: 1001143560
!!!URL-scan: http://repozytorium.nifc.pl/skany/pl-kk-nut--i-137
!!!ONB-nifc: UWAGA: części Caro mea: 1. Caro mea (Largo), 2. Qui manducat, 3. Alleluja (Allegro)
**kern	**fba	**kern	**text	**kern	**text	**kern	**text
*part4	*	*part3	*part3	*part2	*part2	*part1	*part1
*staff4	*	*staff3	*staff3	*staff2	*staff2	*staff1	*staff1
*Iorgan	*	*Iempty	*	*Ivox	*	*Ivox	*
*I"[Organo]	*	*I"Baſso	*	*I"Canto 2do	*	*I"Canto pmo	*
*I'org	*	*I'B	*	*I'S 2	*	*I'S 1	*
*clefF4	*	*clefF4	*	*clefC1	*	*clefC1	*
*k[b-]	*	*k[b-]	*	*k[b-]	*	*k[b-]	*
*F:	*	*F:	*	*F:	*	*F:	*
*M4/4	*	*M4/4	*	*M4/4	*	*M4/4	*
*met(c)	*	*met(c)	*	*met(c)	*	*met(c)	*
=1	=1	=1	=1	=1	=1	=1	=1
*all\right	*	*all\right	*	*all\right	*	*all\right	*
!LO:TX:b:t=alleluja	!	!LO:TX:b:t=4	!	!LO:TX:b:t=2	!	!LO:TX:a:t=Allo	!
!LO:TX:a:t=Allo	!	!LO:TX:a:t=Allo	!	!LO:TX:a:t=Allo	!	!	!
4F\	.	00r	.	0r	.	8r	.
.	.	.	.	.	.	8cc\	Al-
8r	.	.	.	.	.	8a\	-le-
8F\	.	.	.	.	.	8f/	-lu-
4F\	2	.	.	.	.	8b-\L	-ja
.	.	.	.	.	.	16cc\L	.
.	.	.	.	.	.	16dd\JJ	.
4E\	6	.	.	.	.	16cc\LL	.
.	.	.	.	.	.	16dd\	.
.	.	.	.	.	.	16g\	.
.	.	.	.	.	.	16b-\JJ	.
=2	=2	=2	=2	=2	=2	=2	=2
4F\	.	.	.	.	.	8a\L	.
.	.	.	.	.	.	8f\J	.
8r	.	.	.	.	.	16a\LL	.
.	.	.	.	.	.	16g\	.
8F\	.	.	.	.	.	16a\	.
!	!	!	!	!	!	!LO:N:acc=#	!
.	.	.	.	.	.	16bn\JJ	.
!LO:TX:t=P:problem:mixed beam	!	!	!	!	!	!	!
8C\L	.	.	.	.	.	16cc\LL	al-
!	!	!	!	!	!	!LO:N:acc=#	!
.	.	.	.	.	.	16bn\	.
8F\	.	.	.	.	.	16cc\	.
.	.	.	.	.	.	16dd\JJ	.
8G\	4	.	.	.	.	8.cc\	-le-
.	#	.	.	.	.	.	.
8GG/J	6	.	.	.	.	.	.
.	.	.	.	.	.	16b\	-lu-
!LO:LB:g=original	!	!	!	!	!	!LO:LB:g=original	!
=3	=3	=3	=3	=3	=3	=3	=3
4C/	.	.	.	8r	.	4cc\	-ia
.	.	.	.	8gg\	Al-	.	.
8r	.	.	.	8ee\	-le-	4r	.
8c\	.	.	.	8cc\	-lu-	.	.
*	*below	*	*	*	*	*	*
4c\	1	.	.	8ff\L	-ia	2r	.
.	.	.	.	16gg\L	.	.	.
.	.	.	.	16aa\JJ	.	.	.
!LO:N:acc=#	!	!	!	!	!	!	!
4Bn\	.	.	.	16gg\LL	.	.	.
.	.	.	.	16aa\	.	.	.
.	.	.	.	16dd\	.	.	.
.	.	.	.	16ff\JJ	.	.	.
=4	=4	=4	=4	=4	=4	=4	=4
!	!	!	!	!	!	!LO:TX:b:t=3	!
4c\	.	.	.	8ee\L	.	0r	.
.	.	.	.	8cc\J	.	.	.
4B-X\	6	.	.	16dd\LL	.	.	.
.	.	.	.	16cc\	.	.	.
.	.	.	.	16dd\	.	.	.
.	.	.	.	16ee\JJ	.	.	.
!LO:TX:t=P:problem:mixed beam	!	!	!	!	!	!	!
8A\L	.	.	.	16ff\LL	al-	.	.
.	.	.	.	16ee\	.	.	.
8F\	.	.	.	16ff\	.	.	.
.	.	.	.	16gg\JJ	.	.	.
*	*above	*	*	*	*	*	*
8c\	4	.	.	8.ff\	-le-	.	.
8C/J	3	.	.	.	.	.	.
.	.	.	.	16ee\	-lu-	.	.
!	!	!	!	!LO:LB:g=original	!	!	!
=5	=5	=5	=5	=5	=5	=5	=5
4F\	.	8r	.	4ff\	-ia	.	.
.	.	8c\	Al-	.	.	.	.
8r	.	8A\	-le-	4r	.	.	.
8F\	.	8F\	-lu-	.	.	.	.
4F\	2	8B-\L	-ja	2r	.	.	.
.	.	16c\L	.	.	.	.	.
.	.	16d\JJ	.	.	.	.	.
4E\	6	16c\LL	.	.	.	.	.
.	.	16d\	.	.	.	.	.
.	.	16G\	.	.	.	.	.
.	.	16B-\JJ	.	.	.	.	.
=6	=6	=6	=6	=6	=6	=6	=6
!	!	!	!	!LO:TX:b:t=1	!	!	!
4F\	.	8A\L	.	1r	.	1r	.
.	.	8F\J	.	.	.	.	.
8r	.	16A\LL	.	.	.	.	.
.	.	16G\	.	.	.	.	.
8F\	.	16A\	.	.	.	.	.
.	.	16B-X\JJ	.	.	.	.	.
!LO:TX:t=P:problem:mixed beam	!	!	!	!	!	!	!
8C\L	.	16c\LL	al-	.	.	.	.
!	!	!LO:N:acc=#	!	!	!	!	!
.	.	16Bn\	.	.	.	.	.
8F\	.	16c\	.	.	.	.	.
.	.	16d\JJ	.	.	.	.	.
!	!	!LO:N:acc=#	!	!	!	!	!
8G\	4	8.Bn\	-le-	.	.	.	.
8GG/J	3	.	.	.	.	.	.
.	.	16c\	-lu-	.	.	.	.
!	!	!LO:LB:g=original	!	!	!	!	!
=7	=7	=7	=7	=7	=7	=7	=7
4C/	.	4c\	-ia	2r	.	8r	.
.	.	.	.	.	.	8cc\	al-
8r	.	8r	.	.	.	8a\	-le-
8F\	.	8F\	al-	.	.	8f/	-lu-
!LO:LB:g=original	!	!	!	!	!	!	!
8D/L	.	8D/	-le-	8r	.	8b-\L	-ja
8BB-/J	.	8BB-/	-lu-	8b-\	Al-	16cc\L	.
.	.	.	.	.	.	16dd\JJ	.
8En\L	.	8En\	-ja	8g/	-le-	16cc\LL	.
.	.	.	.	.	.	16dd\	.
8C\J	.	8C/	al-	8en/	-lu-	16g\	.
.	.	.	.	.	.	16b-\JJ	.
=8	=8	=8	=8	=8	=8	=8	=8
8F\L	.	8F\L	.	16f/LL	-ia	8a\L	al-
.	.	.	.	16e/	.	.	.
8BB-\J	.	8BB-\J	.	16f/	al-	16b-\L	.
.	.	.	.	16g/JJ	.	16a\JJ	.
!LO:TX:t=P:problem:mixed beam	!	!	!	!	!	!	!
8C\L	.	8.C/	-le-	8.f/	-le-	8.g/	-le-
8CC/J	.	.	.	.	.	.	.
.	.	16C/	-lu-	16e/	-lu-	16f/	-lu-
4FF/	.	4F\	-ja	8f/	-ia	4f/	-ja
.	.	.	.	16g\LL	al-	.	.
.	.	.	.	16a\JJ	.	.	.
8r	.	8r	.	16b-\LL	.	8r	.
.	.	.	.	16cc\	.	.	.
8D\	.	8D\	al-	16b-\	.	8dd\	al-
.	.	.	.	16a\JJ	.	.	.
!	!	!	!	!LO:LB:g=original	!	!LO:LB:g=original	!
=9	=9	=9	=9	=9	=9	=9	=9
4G\	.	4G\	.	8g\L	.	4b-\	.
.	.	.	.	16a\L	.	.	.
.	.	.	.	16b-\JJ	.	.	.
8r	.	8r	.	16cc\LL	.	8r	.
.	.	.	.	16dd\	.	.	.
8E\	.	8E\	.	16cc\	.	8een\	.
.	.	.	.	16b-\JJ	.	.	.
4A\	.	4A\	.	8a\L	.	4cc\	.
.	.	.	.	16b-\L	.	.	.
.	.	.	.	16cc\JJ	.	.	.
8r	.	8r	.	16dd\LL	.	8r	.
.	.	.	.	16ee\	.	.	.
8F\	.	8F\	.	16dd\	.	8ff\	.
.	.	.	.	16cc\JJ	.	.	.
!	!	!LO:LB:g=original	!	!	!	!	!
=10	=10	=10	=10	=10	=10	=10	=10
!LO:TX:t=P:problem:mixed beam	!	!	!	!LO:N:acc=#	!	!	!
8G\L	.	8G\L	.	16bn\LL	.	8dd\L	.
.	.	.	.	16g\	.	.	.
8F\	.	8F\J	.	16a\	.	16ee\L	.
.	.	.	.	16b\JJ	.	16ff\JJ	.
8G\	4	8.G\	le-	8.cc\	-le-	8ee\L	-le-
8GG/J	3	.	.	.	.	16dd\Jk	-lu-
!	!	!	!	!LO:N:acc=#	!	!	!
.	.	16G\	-lu-	16bn\	-lu-	16cc\	-ja
!LO:TX:t=P:problem:mixed beam	!	!	!	!	!	!	!
8C/L	.	8C/	-ja	4cc\	-ia	8cc\L	.
8c\	.	8c\	al-	.	.	16dd\L	.
.	.	.	.	.	.	16ee\JJ	.
8A\	.	8A\	-le-	4r	.	16ff\LL	al-
.	.	.	.	.	.	16gg\	.
8F\J	.	8F\	-lu-	.	.	16ff\	.
.	.	.	.	.	.	16ee\JJ	.
!LO:LB:g=original	!	!	!	!	!	!	!
=11	=11	=11	=11	=11	=11	=11	=11
!LO:TX:t=P:problem:mixed beam	!	!	!	!	!	!	!
8BB-/L	.	8B-\	-ja	2r	.	8dd\L	.
8B-\	.	8B-\L	al-	.	.	16ee\L	.
.	.	.	.	.	.	16ff\JJ	.
8G\	.	8G\	.	.	.	16ee\LL	.
.	.	.	.	.	.	16ff\	.
8E\J	.	8E\J	.	.	.	16ee\	.
.	.	.	.	.	.	16dd\JJ	.
!LO:TX:t=P:problem:mixed beam	!	!	!	!LO:LB:g=original	!	!	!
8AA/L	.	8A\L	.	8r	.	8cc\L	.
8A\	.	8A\	.	8cc\	al-	16dd\L	.
.	.	.	.	.	.	16ee\JJ	.
8F\	.	8F\	.	8a\	-le-	16dd\LL	.
.	.	.	.	.	.	16ee\	.
8D\J	.	8D\J	.	8f\	-lu-	16dd\	.
.	.	.	.	.	.	16cc\JJ	.
!	!	!LO:LB:g=original	!	!LO:LB:g=original	!	!	!
=12	=12	=12	=12	=12	=12	=12	=12
!LO:TX:t=P:problem:mixed beam	!	!	!	!	!	!	!
8GG/L	.	8G\L	.	8b-\L	-ia	8b-\L	.
8G\	.	8G\	.	16cc\L	.	8b-\	.
.	.	.	.	16dd\JJ	.	.	.
8E\	.	8E\	.	16cc\LL	.	8g\	.
.	.	.	.	16dd\	.	.	.
8C\J	.	8C\J	.	16g\	.	8e\J	.
.	.	.	.	16b-\JJ	.	.	.
!LO:TX:t=P:problem:mixed beam	!	!	!	!	!	!	!
8F\L	.	8F\L	.	16a\LL	al-	8f\L	.
.	.	.	.	16g\	.	.	.
8BB-\	.	8BB-\J	.	16f\	.	16b-\L	.
.	.	.	.	16g\JJ	.	16a\JJ	.
8C\	.	8.C/	-le-	8.f/	-le-	8.g/	-le-
8CC/J	.	.	.	.	.	.	.
!	!	!	!	!LO:N:acc=#	!	!	!
.	.	16C/	-lu-	16en/	-lu-	16f/	-lu-
=13	=13	=13	=13	=13	=13	=13	=13
4FF/	.	16F\LL	-ja	4f/	-ia	4f/	-ja
.	.	16G\	.	.	.	.	.
.	.	16F\	.	.	.	.	.
.	.	16E\JJ	.	.	.	.	.
8r	.	8D\L	.	8r	.	4r	.
8D\	.	16E\L	.	8dd\	al-	.	.
.	.	16F\JJ	.	.	.	.	.
4G\	.	16G\LL	.	4b-\	.	2r	.
.	.	16A\	.	.	.	.	.
.	.	16G\	.	.	.	.	.
.	.	16F\JJ	.	.	.	.	.
8r	.	8E\L	.	8r	.	.	.
8E\	.	16F\L	.	8een\	.	.	.
.	.	16G\JJ	.	.	.	.	.
=14	=14	=14	=14	=14	=14	=14	=14
4A\	.	16A\LL	.	4cc\	.	2r	.
.	.	16B-\	.	.	.	.	.
.	.	16A\	.	.	.	.	.
.	.	16G\JJ	.	.	.	.	.
8r	.	8F\L	al-	8r	.	.	.
8F\	.	16G\L	.	8ff\	.	.	.
.	.	16A\JJ	.	.	.	.	.
!LO:TX:t=P:problem:mixed beam	!	!LO:LB:g=original	!	!	!	!	!
8B-\L	6	8B-\L	.	8dd\L	.	4r	.
8G\	.	8G\J	.	16gg\L	.	.	.
.	.	.	.	16ff\JJ	.	.	.
8A\	4	8.A\	-le-	8.ee\	le-	8r	.
8AA/J	3	.	.	.	.	8a\	al-
.	.	16A\	-lu-	16dd\	-lu-	.	.
!LO:LB:g=original	!	!	!	!LO:LB:g=original	!	!LO:LB:g=original	!
=15	=15	=15	=15	=15	=15	=15	=15
4D\	.	4D\	-ja	8dd\	-ia	8f/	-le-
.	.	.	.	8dd\	al-	8d/	-lu-
8r	.	8r	.	8b-\	-le-	4g/	-ja
8G\	.	8G\	al-	8g\	-lu-	.	.
8E\L	.	8E\	-le-	4.cc\	-ia	8r	.
*	*	*	*	*	*	*	*ij
8C\J	.	8C/	-lu-	.	.	8cc\	al-
4F\	.	4F\	-ja	.	.	8a\	-le-
.	.	.	.	8ff\	al-	8f\	-lu-
=16	=16	=16	=16	=16	=16	=16	=16
8r	.	8r	.	8dd\	-le-	4b-\	-ja
*	*	*	*	*	*	*	*Xij
8B-\L	.	8B-\	al-	8b-\	-lu-	.	.
8G\	.	8G\	-le-	8een\	-ia	8r	.
8E\J	.	8E\	-lu-	8cc\	al-	8g/	al-
!LO:TX:t=P:problem:mixed beam	!	!	!	!	!	!	!
8F\L	.	8F\	-ja	8a\L	.	16a\LL	.
.	.	.	.	.	.	16g\	.
8BB-\	.	8BB-/	al-	16b-\L	.	16f\	.
.	.	.	.	16a\JJ	.	16g\JJ	.
8C\	4	8.C/	-le-	8.g/	-le-	8.f/	-le-
.	3	.	.	.	.	.	.
8CC/J	.	.	.	.	.	.	.
.	.	16C/	-lu-	16f/	-lu-	16e/	-lu-
!	!	!LO:PB:g=original	!	!	!	!	!
=17	=17	=17	=17	=17	=17	=17	=17
4FF/	.	4F\	-ia	4f/	-ia	8f/	-ia
.	.	.	.	.	.	8cc\	al-
8r	.	4r	.	4r	.	8a\	-le-
8F\	.	.	.	.	.	8f\	-lu-
!	!	!	!	!	!	!LO:LB:g=original	!
4F\	2	2r	.	2r	.	8b-\L	-ia
.	.	.	.	.	.	16cc\L	.
.	.	.	.	.	.	16dd\JJ	.
4E\	.	.	.	.	.	16cc\LL	.
.	.	.	.	.	.	16dd\	.
.	.	.	.	.	.	16g\	.
.	.	.	.	.	.	16b-\JJ	.
!	!	!	!	!LO:PB:g=original	!	!	!
=18	=18	=18	=18	=18	=18	=18	=18
!	!	!	!	!LO:TX:b:t=1	!	!	!
4F\	.	8r	.	1r	.	4a\	.
.	.	8F\	al-	.	.	.	.
8r	.	8E\	-le-	.	.	4r	.
8C/	.	8C/	-lu-	.	.	.	.
4C/	2	8F\L	-ja	.	.	2r	.
.	.	16G\L	.	.	.	.	.
.	.	16A\JJ	.	.	.	.	.
!LO:N:acc=#	!	!	!	!	!	!	!
4BBn/	.	16G\LL	.	.	.	.	.
.	.	16A\	.	.	.	.	.
.	.	16D\	.	.	.	.	.
.	.	16F\JJ	.	.	.	.	.
!LO:LB:g=original	!	!	!	!	!	!	!
=19	=19	=19	=19	=19	=19	=19	=19
4C/	.	4E\	.	8r	.	2r	.
.	.	.	.	8gg\	Al-	.	.
8r	.	4r	.	8ee\	-le-	.	.
8c\	.	.	.	8cc\	-lu-	.	.
4c\	2	2r	.	8ff\L	-ia	4r	.
.	.	.	.	16gg\L	.	.	.
.	.	.	.	16aa\JJ	.	.	.
!LO:N:acc=#	!	!	!	!	!	!	!
4Bn\	.	.	.	16gg\LL	.	8r	.
.	.	.	.	16aa\	.	.	.
.	.	.	.	16dd\	.	8gg\	al-
.	.	.	.	16ff\JJ	.	.	.
=20	=20	=20	=20	=20	=20	=20	=20
8c\L	.	8r	.	4ee\	.	8ee\	-le-
8c\	.	8c\	al-	.	.	8cc\	-lu-
8A\	.	8A\	-le-	8r	.	4ff\	-ja
8F\J	.	8F\	-lu-	8ff\	al-	.	.
!LO:TX:t=P:problem:mixed beam	!	!LO:LB:g=original	!	!	!	!	!
8BB-/L	.	8B-\	-ia	8.dd\	-le-	4r	.
8B-\J	.	8B-\L	al-	.	.	.	.
.	.	.	.	16b-\	-lu-	.	.
8G\L	.	8G\	.	4een\	-ja	8r	.
8E\J	.	8E\J	.	.	.	8ee\	al-
!	!	!	!	!	!	!LO:PB:g=original	!
=21	=21	=21	=21	=21	=21	=21	=21
!LO:TX:t=P:problem:mixed beam	!	!	!	!	!	!	!
8AA/L	.	8r	.	8r	.	8cc\	-le-
8A\	.	8A\L	.	8cc\	al-	8a\	-lu-
8F\	.	8F\	.	8a\	-le-	4dd\	-ia
8D\J	.	8D\J	.	8f\	-lu-	.	.
!LO:TX:t=P:problem:mixed beam	!	!	!	!LO:LB:g=original	!	!	!
8GG/L	.	8r	.	8b-\L	-ia	8r	.
*	*	*	*	*	*	*	*ij
8G\J	.	8G\L	.	16cc\L	.	8b-\	le-
.	.	.	.	16dd\JJ	.	.	.
8E\L	.	8E\	.	16cc\LL	.	8g/	-lu-
.	.	.	.	16dd\	.	.	.
8C\J	.	8C\J	.	16g\	.	8e/	-ia
*	*	*	*	*	*	*	*Xij
.	.	.	.	16b-\JJ	.	.	.
=22	=22	=22	=22	=22	=22	=22	=22
!LO:TX:t=P:problem:mixed beam	!	!	!	!	!	!	!
8F\L	.	8F\L	.	16a\LL	al-	8f\L	al-
.	.	.	.	16g\	.	.	.
8BB-\	.	8BB-\J	.	16f\	.	16b-\L	.
.	.	.	.	16g\JJ	.	16a\JJ	.
8C\	.	8.C/	-le-	8.f/	-le-	8.g/	-le-
8CC/J	.	.	.	.	.	.	.
.	.	16C/	-lu-	16e/	-lu-	16f/	-lu-
4FF/	.	8F\L	-ja	4f/	-ja	8f/	-ia
.	.	16G\L	.	.	.	8ff\L	al-
.	.	16A\JJ	.	.	.	.	.
8r	.	16B-\LL	.	8r	.	8dd\	.
.	.	16c\	.	.	.	.	.
8B-\	.	16B-\	.	8dd\	al-	8b-\J	.
.	.	16A\JJ	.	.	.	.	.
!LO:LB:g=original	!	!LO:LB:g=original	!	!	!	!LO:LB:g=original	!
=23	=23	=23	=23	=23	=23	=23	=23
4G\	.	8G\L	.	8b-\L	.	8r	.
.	.	16A\L	.	8g\J	.	8gg\L	.
.	.	16B-\JJ	.	.	.	.	.
8r	.	16c\LL	.	8r	.	8ee\	.
.	.	16d\	.	.	.	.	.
8c\	.	16c\	.	8ee\	.	8cc\J	.
.	.	16B-\JJ	.	.	.	.	.
4A\	.	8A\L	.	8cc\L	.	8r	.
.	.	16B-\L	.	8a\J	.	8aa\L	.
.	.	16c\JJ	.	.	.	.	.
8r	.	16d\LL	.	8r	.	8ff\	.
.	.	16e\	.	.	.	.	.
8d\	.	16d\	.	8ff\	.	16dd\L	.
.	.	16c\JJ	.	.	.	16ee\JJ	.
!	!	!	!	!LO:LB:g=original	!	!	!
=24	=24	=24	=24	=24	=24	=24	=24
!LO:TX:t=P:problem:mixed beam	!	!	!	!	!	!	!
8B-\L	.	8B-\L	al-	16dd\LL	.	16ff\LL	-al-
.	.	.	.	16cc\	.	16ee\	.
8F\	.	8F\J	.	16b-\	.	16ff\	.
.	.	.	.	16a\JJ	.	16gg\JJ	.
*	*below	*	*	*	*	*	*
8c\	4	8.C/	-le-	8.g/	le-	8.ee\	.
8C/J	3	.	.	.	.	.	.
.	.	16C/	-lu-	16g/	-lu-	16ee\	-le-
8F\L	.	8F\	-ja	16a\LL	-ia	16ff\LL	-lu-
.	.	.	.	16g\	.	16ee\	.
8B-\J	.	8B-\	al-	16a\	al-	16ff\	-ja
.	.	.	.	16b-\JJ	.	16gg\JJ	.
!LO:TX:t=P:problem:mixed beam	!	!	!	!	!	!	!
8c\L	4	8.c\	-le-	8.g/	-le-	8.ff\	alle-
8C/J	3	.	.	.	.	.	.
.	.	16c\	-lu-	16g/	-lu-	16ee\	-lu-
!	!	!	!	!	!	!LO:LB:g=original	!
=25	=25	=25	=25	=25	=25	=25	=25
4F\	.	4F\	-ja	4a\	-ia	4ff\	-ia
4r	.	4r	.	4r	.	4r	.
2r	.	2r	.	2r	.	2r	.
==	==	==	==	==	==	==	==
*-	*-	*-	*-	*-	*-	*-	*-
!!!system-decoration: [(s1,s2,s3)]s4
!!!ENC: Marta Lawrence
!!!END: 2021-02-17
!!!ENC: Krzysztof Stępień
!!!END: 2021-02-11
